public/icons/check.svg

<?xml version="1.0" encoding="UTF-8"?>
<!-- Uploaded to: SVG Repo, www.svgrepo.com, Generator: SVG Repo Mixer Tools -->
<svg width="800px" height="800px" viewBox="0 -4 30 30" version="1.1" xmlns="http://www.w3.org/2000/svg" xmlns:xlink="http://www.w3.org/1999/xlink">
    
    <title>check</title>
    <desc>Created with Sketch.</desc>
    <defs>
        <linearGradient x1="50%" y1="0%" x2="50%" y2="100%" id="linearGradient-1">
            <stop stop-color="#1DD47F" offset="0%">
</stop>
            <stop stop-color="#0DA949" offset="100%">
</stop>
        </linearGradient>
    </defs>
    <g id="icons" stroke="none" stroke-width="1" fill="none" fill-rule="evenodd">
        <g id="ui-gambling-website-lined-icnos-casinoshunter" transform="translate(-735.000000, -1911.000000)" fill="url(#linearGradient-1)" fill-rule="nonzero">
            <g id="4" transform="translate(50.000000, 1871.000000)">
                <path d="M714.442949,40.6265241 C715.185684,41.4224314 715.185684,42.6860985 714.442949,43.4820059 L697.746773,61.3734759 C697.314529,61.8366655 696.704235,62.0580167 696.097259,61.9870953 C695.539848,62.0082805 694.995328,61.7852625 694.600813,61.3625035 L685.557051,51.6712906 C684.814316,50.8753832 684.814316,49.6117161 685.557051,48.8158087 C686.336607,47.9804433 687.631056,47.9804433 688.410591,48.8157854 L696.178719,57.1395081 L711.589388,40.6265241 C712.368944,39.7911586 713.663393,39.7911586 714.442949,40.6265241 Z" id="check">
</path>
            </g>
        </g>
    </g>
</svg>

<svg xmlns="http://www.w3.org/2000/svg" width="800" height="800" viewBox="0 -4 30 30"><defs><linearGradient id="a" x1="50%" x2="50%" y1="0%" y2="100%"><stop offset="0%" stop-color="#1DD47F"/><stop offset="100%" stop-color="#0DA949"/></linearGradient></defs><path fill="url(#a)" d="M714.443 40.627c.743.795.743 2.06 0 2.855l-16.696 17.891a1.94 1.94 0 0 1-1.65.614 1.94 1.94 0 0 1-1.496-.624l-9.044-9.692a2.11 2.11 0 0 1 0-2.855 1.94 1.94 0 0 1 2.854 0l7.768 8.324 15.41-16.513a1.94 1.94 0 0 1 2.854 0" transform="translate(-685 -40)"/></svg>
